X:1
T:pavane funk
T:pavane funk
T:g faure
T:ds
C:ds
%%score 1 { 2 | 3 } 4 ( 5 6 )
L:1/8
Q:1/4=90
M:4/4
K:G
V:1 treble transpose=-2 nm="Trompette en Si♭" snm="Tromp. Si♭"
V:2 treble nm="Piano électrique" snm="Pia. él."
V:3 bass 
V:4 bass transpose=-12 nm="Basse électrique" snm="B. él."
V:5 perc nm="Batterie" snm="Bat."
K:none
I:percmap A A 43 normal
I:percmap ^a a 49 x
I:percmap ^g g 42 x
I:percmap c c 40 normal
I:percmap e e 47 normal
V:6 perc 
K:none
I:percmap F F 36 normal
I:percmap c c 38 normal
V:1
[K:A] z8 | z8 | z8 | z8 | z8 | z8 | F2- F>G A2- A>B | AGAF G2- G>A | GFGE F2- F>^E | C4 z2 z2 | %10
 f2- f>g a2- a>b | (3:2:2a2 g a>f g2- g>a | (3g/f/e/f ge f2- f>^e | c4 z2 z2 | z8 | z8 | z8 | z8 | %18
 z8 | z8 | (c2- c>d e2- e>f | e>d e/dc/ d2- d>e | dc/4d/4B/4c/ e/4 d/B c2- c>^B | c4) z4 | z8 | %25
 z8 |] %26
V:2
 z8 | z8 | z8 | z8 | z8 | z8 | [EGB]4 [CBe]4 | [DAd]4 [B,DA]4 | [CGc]4 [A,CG]4 | [B,F^d]4 [A,Fd]4 | %10
 [EGB]4 [CBe]4 | [DAd]4 [B,DA]4 | [CGc]4 [A,CG]4 | [B,F^d]4 [A,Fd]4 | z8 | z8 | z8 | z8 | %18
 [B,Fc]4 [B,FGA]4 | [B,Fc]4 [B,FGA]4 | [EGB]4 [B,EG]4 | [A,GA]4 [D=FA]4 | [D=FG]4 [C^Fc]4 | %23
 [B,Fc]4 [B,FGA]4 | z8 | z8 |] %26
V:3
 z8 | z8 | E,G,B,G, C,B,EB, | D,A,DA, B,,A,DA, | C,G,CG, A,,G,CG, | B,,F,^DF, A,,F,DF, | %6
 E,G,B,G, C,B,EB, | D,A,DA, B,,A,DA, | C,G,CG, A,,G,CG, | B,,F,^DF, A,,F,DF, | E,G,B,G, C,B,EB, | %11
 D,A,DA, B,,A,DA, | C,G,CG, A,,G,CG, | B,,F,^DF, A,,F,DF, | G,,EB,E E,,B,G,B, | A,,EG,E D,A,=F,A, | %16
 G,,D=F,D C,C^F,C | B,,F,B,C A,B,G,F, | B,,F,B,C A,B,G,F, | B,,F,B,C A,B,G,F, | G,,EB,E E,,B,G,B, | %21
 A,,EG,E D,A,=F,A, | G,,D=F,D C,C^F,C | B,,F,B,C A,B,G,F, | z8 | z8 |] %26
V:4
 E,/F,.G,/ .B,.G, E,.G,/A,/ .B,.G, | E,/F,.G,/ .B,.G, E,>A, .B,/A,/G,/.F,/ | E,/F,/G, B,G, C,3 B, | %3
 D,2 D>A, B,,A,/C/ DA, | C,4 A,,4 | B,,2 _E/F,/F, A,,4 | E,/F,/G, B,G, C,3 B, | %7
 D,2 D>A, B,,A,/C/ DA, | C,4 A,,4 | B,,2 _E/F,/F, A,,4 | E,/F,/G, B,G, C,3 B, | %11
 D,2 D>A, B,,A,/C/ DA, | C,4 A,,4 | B,,2 _E/F,/F, A,,4 | G,,/B,,/E, B,>E E, B,,2 C, | %15
 A,,2 C,/E,/>F,/E,/ D,/E,/A, =F,G,/A,/ | G,,/C,D/ =F,/G,D/ C,2 ^F,>C, | z/ B,,F,B,CA,B,G,F,/ | %18
 z/ B,,F,B,CA,B,G,F,/ | z/ B,,F,B,CA,B,G,F,/ | G,,/B,,/E, B,>E E, B,,2 C, | %21
 A,,2 C,/E,/>F,/E,/ D,/E,/A, =F,G,/A,/ | G,,/C,D/ =F,/G,D/ C,2 ^F,>C, | z/ B,,F,B,CA,B,G,F,/ | %24
 E,/F,.G,/ .B,.G, E,.G,/A,/ .B,.G, | E,/F,.G,/ .B, z z4 |] %26
V:5
[K:C] ^a<^g ^g^g ^g^g/^g/ ^g^g | ^g<^g ^g^g ^g^g/^g/ ^g^g | ^g<^g ^g^g ^g^g/^g/ ^g^g | %3
 ^g<^g ^g^g ^g^g/^g/ ^g^g | ^g<^g ^g^g ^g^g/^g/ ^g^g | ^g<^g ^g^g ^g^g/^g/ c/e/c/A/ | %6
 ^g<^g ^g^g ^g^g/^g/ ^g^g | ^g<^g ^g^g ^g^g/^g/ ^g^g | ^g<^g ^g^g ^g^g/^g/ ^g^g | %9
 ^g<^g ^g^g ^g^g/^g/ c/e/c/A/ | ^g<^g ^g^g ^g^g/^g/ ^g^g | ^g<^g ^g^g ^g^g/^g/ ^g^g | %12
 ^g<^g ^g^g ^g^g/^g/ ^g^g | ^g<^g ^g^g ^g^g/^g/ c/e/c/A/ | ^g<^g ^g^g ^g^g/^g/ ^g^g | %15
 ^g<^g ^g^g ^g^g/^g/ ^g^g | ^g<^g ^g^g ^g^g/^g/ ^g^g | ^g<^g ^g^g ^g^g/^g/ c/e/c/A/ | %18
 ^a2 z2 ^a2 z2 | ^a2 ^a2 ^a^a^g^g | ^a<^g ^g^g ^g^g/^g/ ^g^g | ^g<^g ^g^g ^g^g/^g/ ^g^g | %22
 ^g<^g ^g^g ^g^g/^g/ ^g^g | ^g<^g ^g^g ^g^g/^g/ c/e/c/A/ | ^a<^g ^g^g ^g^g/^g/ ^g^g | %25
 ^a<^g ^g z z4 |] %26
V:6
[K:C] F>F cF F>F cF | F>F cF F>F cF | F>F cF F>F cF | F>F cF F>F cF | F>F cF F>F cF | %5
 F>F cF F>F x F | F>F cF F>F cF | F>F cF F>F cF | F>F cF F>F cF | F>F cF F>F x F | F>F cF F>F cF | %11
 F>F cF F>F cF | F>F cF F>F cF | F>F cF F>F x F | F>F cF F>F cF | F>F cF F>F cF | F>F cF F>F cF | %17
 F>F cF F>F x F | F4 F4 | F2 F2 FF F/c/F/c/ | F>F cF F>F cF | F>F cF F>F cF | F>F cF F>F cF | %23
 F>F cF F>F x F | F>F cF F>F cF | F>F c z z4 |] %26

